Obsidian-SemiLight/actions/22s/primarykey_constraint.svg

<svg viewBox="0 0 22 22" xmlns="http://www.w3.org/2000/svg"><path d="m6 3v1 6 1 8h1v-8h6a4 4 0 0 0 4-4 4 4 0 0 0 -4-4h-6zm1 1h6a3 3 0 0 1 3 3 3 3 0 0 1 -3 3h-6z" fill="#4d4d4d"/></svg>

<svg xmlns="http://www.w3.org/2000/svg" viewBox="0 0 22 22">
  <defs id="defs3051">
    <style type="text/css" id="current-color-scheme">
      .ColorScheme-Text {
        color:#4d4d4d;
      }
      </style>
  </defs>
 <path 
    style="fill:currentColor;fill-opacity:1;stroke:none" 
    d="M 6 3 L 6 4 L 6 10 L 6 11 L 6 19 L 7 19 L 7 11 L 13 11 A 4 4 0 0 0 17 7 A 4 4 0 0 0 13 3 L 7 3 L 6 3 z M 7 4 L 13 4 A 3 3 0 0 1 16 7 A 3 3 0 0 1 13 10 L 7 10 L 7 4 z "
    class="ColorScheme-Text"
    />  
</svg>
